picto/doorway-framed.svg

<svg class="color-immutable" width="30" height="30" viewBox="0 0 30 30" fill="none" xmlns="http://www.w3.org/2000/svg"><path d="M30 0H0V30H30V0Z" fill="#2D327D"/><path d="M25.5 3C26.325 3 27 3.675 27 4.5V25.5C27 26.325 26.325 27 25.5 27H4.5C3.675 27 3 26.325 3 25.5V4.5C3 3.675 3.675 3 4.5 3H25.5ZM25.5 2.625H4.5C3.46613 2.625 2.625 3.46613 2.625 4.5V25.5C2.625 26.5339 3.46613 27.375 4.5 27.375H25.5C26.5339 27.375 27.375 26.5339 27.375 25.5V4.5C27.375 3.46613 26.5339 2.625 25.5 2.625Z" fill="white"/><path d="M6.08887 10.4843V23.9843H12.0888V10.4843H6.08887ZM11.3388 17.9843C11.3388 18.0668 11.2716 18.1346 11.1889 18.1346H6.98887C6.90659 18.1346 6.83857 18.0668 6.83857 17.9843V11.3843C6.83857 11.3021 6.90659 11.2343 6.98887 11.2343H11.1889C11.2716 11.2343 11.3388 11.3021 11.3388 11.3843V17.9843Z" fill="white"/><path d="M7.19179 7.42446L8.62279 5.98431H7.72759L5.93884 7.78424L7.72759 9.58461H8.62279L7.19179 8.14416H18.239V7.42446H7.19179Z" fill="white"/><path d="M18.239 11.2343H12.5388V23.2344H18.239V11.2343Z" fill="white"/></svg>

<svg class="color-immutable" width="30" height="30" viewBox="0 0 30 30" fill="none" xmlns="http://www.w3.org/2000/svg"><g clip-path="url(#a)"><path d="M30 0H0v30h30V0Z" fill="#2D327D"/><path d="M25.5 3c.825 0 1.5.675 1.5 1.5v21c0 .825-.675 1.5-1.5 1.5h-21c-.825 0-1.5-.675-1.5-1.5v-21C3 3.675 3.675 3 4.5 3h21Zm0-.375h-21A1.877 1.877 0 0 0 2.625 4.5v21c0 1.034.841 1.875 1.875 1.875h21a1.877 1.877 0 0 0 1.875-1.875v-21A1.877 1.877 0 0 0 25.5 2.625Z" fill="#fff"/><path d="M6.089 10.484v13.5h6v-13.5h-6Zm5.25 7.5a.15.15 0 0 1-.15.15h-4.2a.151.151 0 0 1-.15-.15v-6.6c0-.082.068-.15.15-.15h4.2a.15.15 0 0 1 .15.15v6.6ZM7.192 7.424l1.43-1.44h-.894l-1.79 1.8 1.79 1.8h.895l-1.431-1.44h11.047v-.72H7.192ZM18.239 11.234h-5.7v12h5.7v-12Z" fill="#fff"/></g><defs><clipPath id="a"><path fill="#fff" d="M0 0h30v30H0z"/></clipPath></defs></svg>
